X: 39762
T: Thane's
R: hornpipe
M: 4/4
K: Gminor
[M:4/4](3D=E^F|G>^FG>B A>^fD>F|G>AB>c d4|e<dc>e d>cB>G|c>BA>G ^F>AD>F|
G>^FG>B A>^fD>F|G>AB>c d2c>B|e>dc>e d>cB>G|1 A2d2 G2:|2 A2d2 G3||
|:A|B>AB>c d>^fg>^G|A>^GA>B c>=ef>^F|G>^FG>A B>Gc>B|A>BA>G ^F2D2|
G>^FG>B A>^fD>F|G>AB>c d2c>B|e>dc>e d>cB>G|1 A2d2 G3:|2 A2d2 G2||

